icons/svg/calendar-multiple.svg

﻿<?xml version="1.0" encoding="utf-8"?>
<!DOCTYPE svg PUBLIC "-//W3C//DTD SVG 1.1//EN" "http://www.w3.org/Graphics/SVG/1.1/DTD/svg11.dtd">
<svg xmlns="http://www.w3.org/2000/svg" xmlns:xlink="http://www.w3.org/1999/xlink" version="1.1" baseProfile="full" width="24" height="24" viewBox="0 0 24.00 24.00" enable-background="new 0 0 24.00 24.00" xml:space="preserve">
	<path fill="#000000" fill-opacity="1" stroke-width="0.2" stroke-linejoin="round" d="M 21,17L 21,8.00001L 7,8.00001L 7,17L 21,17 Z M 21,3.00002C 22.1,3.00002 23,3.90001 23,5.00002L 23,17C 23,18.1 22.1,19 21,19L 6.99999,19C 5.88999,19 5,18.1 5,17L 5.01,5.00002C 5.01,3.90001 5.88999,3.00002 6.99999,3.00002L 7.99999,3.00002L 7.99999,1.00002L 9.99999,1.00002L 9.99999,3.00002L 18,3.00002L 18,1.00002L 20,1.00002L 20,3.00002L 21,3.00002 Z M 3,21L 17,21L 17,23L 3,23C 1.89,23 1,22.1 1,21L 1.01,9L 3,9L 3,21 Z M 19,15L 15,15L 15,11L 19,11L 19,15 Z "/>
</svg>

<svg xmlns="http://www.w3.org/2000/svg" version="1.1" baseProfile="full" width="24" height="24" viewBox="0 0 24.00 24.00" xml:space="preserve"><path fill="#000" fill-opacity="1" stroke-width=".2" stroke-linejoin="round" d="M21 17V8H7v9h14zm0-14c1.1 0 2 .9 2 2v12c0 1.1-.9 2-2 2H7c-1.11 0-2-.9-2-2l.01-12c0-1.1.88-2 1.99-2h1V1h2v2h8V1h2v2h1zM3 21h14v2H3c-1.11 0-2-.9-2-2l.01-12H3v12zm16-6h-4v-4h4v4z"/></svg>
